modules/coreui-icons-brand/icons/quantopian.svg

<svg version="1.1" xmlns="http://www.w3.org/2000/svg" width="32" height="32" viewBox="0 0 32 32">
<title>quantopian</title>
<path d="M2 0h28c1.104 0 2 0.896 2 2v28c0 1.104-0.896 2-2 2h-28c-1.104 0-2-0.896-2-2v-28c0-1.104 0.896-2 2-2zM4 4v24h24v-24zM7.198 18.401h3.203v6.401h-3.203zM12 12h3.198v12.802h-3.198zM16.802 15.198h3.198v9.604h-3.198zM21.599 7.198h3.198v17.604h-3.198z"></path>
</svg>

<svg xmlns="http://www.w3.org/2000/svg" width="32" height="32" viewBox="0 0 32 32"><path d="M2 0h28a2 2 0 012 2v28a2 2 0 01-2 2H2a2 2 0 01-2-2V2a2 2 0 012-2zm2 4v24h24V4zm3.198 14.401h3.203v6.401H7.198zM12 12h3.198v12.802H12zm4.802 3.198H20v9.604h-3.198zm4.797-8h3.198v17.604h-3.198z"/></svg>
